X: 66
T: Enkronapolskan
T: Enkronaspolskan
C: trad. efter Omas Ludvig Larson
R: polska
F: https://natunelist.net/enkronapolskan-enkronaspolskan/
Z: 2021 John Chambers <jc:trillian.mit.edu>
M: 3/4
L: 1/8
K: Am
|:\
"Am"vE>ue- e>ud ve>B | "E7"d2 (B>d) (c>B) | "Am"(A>^G) (3(ABc) "E7"(3(dBc) | "Am"(A>G) (3(ABc) (3(A"E7"BG) |
"Am"E>e- e>d e>B | "E7"d2 (B>d) (c>B) | "Am"(A>^G) (3(ABc) "E7"(3(dBc) | (3(AB^G) "Am"A4 :|
|:\
"E7"(vE2- E>^G) "Am"(3(ABc) | "E7"d>c- "Am"cA/c/ "E7"(B>A) | (^G>F) "Am"(G<A) "E7"B>c | "Am"A>^G (3(ABc) "E7"(3(ABG) |
"E7"(E>^G) "Am"(3(ABc) "E7"d>d- | d>"Am"c- cA/c/ "E7"(B>A) | (^G>F) "Am"(G<A) "E7"B>c | (3(AB^G) "Am"A4 :|
